assets/ai/ai-open-data-square.svg

<svg xmlns="http://www.w3.org/2000/svg" width="100%" height="100%" viewBox="-75.52 -43.52 599.04 599.04"><path d="M 48 32 C 21.5 32 0 53.5 0 80 L 0 432 C 0 458.5 21.5 480 48 480 L 400 480 C 426.5 480 448 458.5 448 432 L 448 80 C 448 53.5 426.5 32 400 32 L 48 32 z M 222.0625 96.001953 C 222.70239 95.99674 223.34723 96.005636 223.99609 96.029297 C 231.85494 96.051421 239.80973 97.405534 246.9707 100.73242 C 276.55721 117.45587 305.86893 134.67753 335.34961 151.59375 C 353.71523 160.20006 367.98389 177.67087 369.95117 198.25 C 370.26134 232.24002 369.99598 266.24153 370.08398 300.23633 C 371.81296 320.44513 363.81813 341.53637 346.97656 353.52734 C 317.69851 370.79069 288.12359 387.56315 258.73047 404.63672 C 242.09115 416.24047 219.82467 419.84613 201.01562 411.26953 C 171.42732 394.54785 142.12026 377.31424 112.64062 360.39453 C 94.276669 351.78528 80.006535 334.31901 78.041016 313.73828 C 77.730807 279.74802 77.99429 245.74504 77.90625 211.75 C 76.311484 192.57659 83.286508 172.72339 98.466797 160.38477 C 121.6759 145.61983 146.0615 132.66809 169.74219 118.63086 C 186.6093 109.89826 202.22577 96.16357 222.0625 96.001953 z M 205.48242 181.63477 L 205.48242 330.35742 L 242.51562 330.35742 L 242.51562 181.63477 L 205.48242 181.63477 z M 252.08398 214.00586 L 252.08398 330.35742 L 289.09766 330.35742 L 289.09766 214.00586 L 252.08398 214.00586 z M 158.88867 274.70312 L 158.88867 330.35742 L 195.91406 330.35742 L 195.91406 274.70312 L 158.88867 274.70312 z"/></svg>

<svg xmlns="http://www.w3.org/2000/svg" width="100%" height="100%" viewBox="-75.52 -43.52 599.04 599.04"><path d="M48 32C21.5 32 0 53.5 0 80v352c0 26.5 21.5 48 48 48h352c26.5 0 48-21.5 48-48V80c0-26.5-21.5-48-48-48H48zm174.063 64.002a43.37 43.37 0 011.933.027c7.859.022 15.814 1.377 22.975 4.703 29.586 16.724 58.898 33.946 88.379 50.862 18.365 8.606 32.634 26.077 34.601 46.656.31 33.99.045 67.992.133 101.986 1.729 20.21-6.266 41.3-23.107 53.291-29.278 17.264-58.853 34.036-88.247 51.11-16.639 11.603-38.905 15.21-57.714 6.633-29.589-16.722-58.896-33.956-88.375-50.875-18.364-8.61-32.634-26.076-34.6-46.657-.31-33.99-.047-67.993-.135-101.988-1.595-19.173 5.38-39.027 20.56-51.365 23.21-14.765 47.596-27.717 71.276-41.754 16.867-8.733 32.484-22.467 52.32-22.629zm-16.58 85.633v148.722h37.033V181.635h-37.034zm46.601 32.37v116.352h37.014V214.006h-37.014zm-93.195 60.698v55.654h37.025v-55.654H158.89z"/></svg>
